X:1
T:Tritsch-Tratsch-Polka
C:Johann Strauss II
M:2/4
L:1/8
Q:1/4=152
K:C
% A section — 16 bars (anacrusis E4)
E | EEEG | EEGA | ccdc | B2 zE | EEEG | EEGA | ccBA | G2 z2 |
GAGB | AcBA | GAGB | G2 zG | GAGB | AcBd | cBAG | C2 z2 |]
